public/assets/img/svg/embed/share.svg

<?xml version="1.0" encoding="UTF-8" standalone="no"?>
<svg width="40px" height="40px" viewBox="0 0 40 40" version="1.1" xmlns="http://www.w3.org/2000/svg" xmlns:xlink="http://www.w3.org/1999/xlink" xmlns:sketch="http://www.bohemiancoding.com/sketch/ns">
    <!-- Generator: Sketch 3.2.2 (9983) - http://www.bohemiancoding.com/sketch -->
    <title>Fill 181</title>
    <desc>Created with Sketch.</desc>
    <defs></defs>
    <g id="UI" stroke="none" stroke-width="1" fill="none" fill-rule="evenodd" sketch:type="MSPage">
        <g id="Toolbox-Expanded" sketch:type="MSArtboardGroup" transform="translate(-905.000000, -209.000000)" fill="#000000">
            <g id="Share-+-Fill-181" sketch:type="MSLayerGroup" transform="translate(898.000000, 209.000000)">
                <path d="M39.7871323,25.855134 C37.6026423,25.855134 35.6451734,26.8147498 34.3207263,28.3220578 L23.8542025,21.0764506 C24.6718555,19.7409314 25.1503898,18.1846729 25.1503898,16.5166594 C25.1503898,15.4037267 24.9318465,14.343439 24.5493959,13.3598097 L34.3065963,8.97642522 C35.3625745,10.7912905 37.3511292,12.0205962 39.6307609,12.0205962 C43.0106446,12.0205962 45.7612745,9.32369715 45.7612745,6.0089127 C45.7612745,2.69597543 43.0106446,0 39.6307609,0 C36.2508772,0 33.5002473,2.69597543 33.5002473,6.0089127 C33.5002473,6.59631947 33.5906789,7.16433074 33.7517604,7.70278695 L23.9465181,12.1074142 C22.3799779,9.43175783 19.4418906,7.62058694 16.0742529,7.62058694 C11.0703671,7.62058694 7,11.6114433 7,16.5166594 C7,21.4237226 11.0703671,25.4155026 16.0742529,25.4155026 C18.8719827,25.4155026 21.3758095,24.1668014 23.0422014,22.210626 L33.5068413,29.4543859 C32.9133834,30.4814242 32.5695547,31.6645501 32.5695547,32.9261816 C32.5695547,36.8274493 35.8071969,40 39.7871323,40 C43.7651838,40 47,36.8274493 47,32.9261816 C47,29.0267612 43.7651838,25.855134 39.7871323,25.855134 L39.7871323,25.855134 Z M39.6307609,1.38539334 C42.2316134,1.38539334 44.3482797,3.45886536 44.3482797,6.0089127 C44.3482797,8.55988363 42.2316134,10.6352028 39.6307609,10.6352028 C37.0299084,10.6352028 34.9132421,8.55988363 34.9132421,6.0089127 C34.9132421,3.45886536 37.0299084,1.38539334 39.6307609,1.38539334 L39.6307609,1.38539334 Z M16.0742529,24.0301092 C11.8493983,24.0301092 8.41299484,20.659909 8.41299484,16.5166594 C8.41299484,12.3752569 11.8493983,9.00598028 16.0742529,9.00598028 C20.3000495,9.00598028 23.7373949,12.3752569 23.7373949,16.5166594 C23.7373949,20.659909 20.3000495,24.0301092 16.0742529,24.0301092 L16.0742529,24.0301092 Z M39.7871323,38.6146067 C36.586228,38.6146067 33.9825495,36.0627121 33.9825495,32.9261816 C33.9825495,29.7914983 36.586228,27.2405274 39.7871323,27.2405274 C42.9852107,27.2405274 45.5870052,29.7914983 45.5870052,32.9261816 C45.5870052,36.0627121 42.9852107,38.6146067 39.7871323,38.6146067 L39.7871323,38.6146067 Z" id="Fill-181" sketch:type="MSShapeGroup"></path>
            </g>
        </g>
    </g>
</svg>

<?xml version="1.0" encoding="utf-8"?>
<!-- Generator: Adobe Illustrator 17.0.0, SVG Export Plug-In . SVG Version: 6.00 Build 0)  -->
<!DOCTYPE svg PUBLIC "-//W3C//DTD SVG 1.1//EN" "http://www.w3.org/Graphics/SVG/1.1/DTD/svg11.dtd">
<svg version="1.1" id="Layer_1" xmlns:sketch="http://www.bohemiancoding.com/sketch/ns"
	 xmlns="http://www.w3.org/2000/svg" xmlns:xlink="http://www.w3.org/1999/xlink" x="0px" y="0px" width="48px" height="48px"
	 viewBox="-4 -4 48 48" enable-background="new -4 -4 48 48" xml:space="preserve">
<title>Fill 181</title>
<desc>Created with Sketch.</desc>
<g id="UI" sketch:type="MSPage">
	<g id="Toolbox-Expanded" transform="translate(-905.000000, -209.000000)" sketch:type="MSArtboardGroup">
		<g id="Share-_x2B_-Fill-181" transform="translate(898.000000, 209.000000)" sketch:type="MSLayerGroup">
			<path id="Fill-181" sketch:type="MSShapeGroup" d="M39.787,25.855c-2.184,0-4.142,0.96-5.466,2.467l-10.467-7.246
				c0.818-1.336,1.296-2.892,1.296-4.56c0-1.113-0.219-2.173-0.601-3.157l9.757-4.383c1.056,1.815,3.045,3.044,5.324,3.044
				c3.38,0,6.131-2.697,6.131-6.012C45.761,2.696,43.011,0,39.631,0S33.5,2.696,33.5,6.009c0,0.587,0.09,1.155,0.252,1.694
				l-9.805,4.405c-1.567-2.676-4.505-4.487-7.872-4.487C11.07,7.621,7,11.611,7,16.517c0,4.907,4.07,8.899,9.074,8.899
				c2.798,0,5.302-1.249,6.968-3.205l10.465,7.244c-0.593,1.027-0.937,2.21-0.937,3.472c0,3.901,3.238,7.074,7.218,7.074
				C43.765,40,47,36.827,47,32.926C47,29.027,43.765,25.855,39.787,25.855L39.787,25.855z M39.631,1.385
				c2.601,0,4.718,2.073,4.718,4.624c0,2.551-2.117,4.626-4.718,4.626s-4.718-2.075-4.718-4.626
				C34.913,3.459,37.03,1.385,39.631,1.385L39.631,1.385z M16.074,24.03c-4.225,0-7.661-3.37-7.661-7.513
				c0-4.141,3.436-7.511,7.661-7.511c4.226,0,7.663,3.369,7.663,7.511C23.737,20.66,20.3,24.03,16.074,24.03L16.074,24.03z
				 M39.787,38.615c-3.201,0-5.805-2.552-5.805-5.688c0-3.135,2.604-5.686,5.805-5.686c3.198,0,5.8,2.551,5.8,5.686
				C45.587,36.063,42.985,38.615,39.787,38.615L39.787,38.615z"/>
		</g>
	</g>
</g>
</svg>
